X: 4350
T: MINUET. (Don Giovanni.)
R: Minuet, Waltz
%R: minuet, waltz
B: James Kerr "Merry Melodies" v.4 p.37 #350
Z: 2016 John Chambers <jc:trillian.mit.edu>
M: 3/4
L: 1/8
K: G
|:\
d2 dddd | d>g d2 z2 | c2 cccc | (d/c/B/c/) B2z2 |\
^c2 cccc | d>e f2 zf | g>e d2 ^c2 | d4 z2 :|
|:\
f2 ffff | g>d d2 z2 | c2 cccc | B/A/B/c/ d2 z2 |\
(e>f) gggg | g>a b3 b | c'>a g2 f2 | g4 z2 :|

%%sep 1 1 500
%%sep 1 1 500

